X:1
T:Dinny Delaney's
K:Dmix
R:jig
M:6/8
O:Trad. (4.11.2015/NS)
"D"A2D ~D3 | A2G E2G |A2D ~D3 |"C"G2A GED |"D"A2D ~D3 c2d e2d|"C"dcA AGE G2A GED:|
|:"D"dcA AGE "C"c3 ABc|"D"dcA AGE "G"G2A GED|"D"dcA AGE "C"c2d e2d|dcA AGE G2A GED:|
|:"D"A2D ~D3 "D"A2B "G"G2B|"D"A2B "G"G2A "C"E2E GED|"D"A2D ~D3 c2d e2d|"C"dcA AGE G2A GED:|
|:dcA AGE c3 ABc|dcA AGE G2A GED|dcA AGE c2d e2d|dcA AGE G2A GED:|
